src/16/actions/format-justify-center.svg

<svg xmlns="http://www.w3.org/2000/svg" width="16" height="16" viewBox="0 0 16 16">
 <defs>
  <style id="current-color-scheme" type="text/css">
   .ColorScheme-Text { color:#565656; } .ColorScheme-Highlight { color:#5294e2; }
  </style>
 </defs>
 <path style="fill:currentColor" class="ColorScheme-Text" d="M 1 1 L 1 3 L 15 3 L 15 1 L 1 1 z M 4 5.0039062 L 4 7.0039062 L 12 7.0039062 L 12 5.0039062 L 4 5.0039062 z M 4 9.0039062 L 4 11.003906 L 12 11.003906 L 12 9.0039062 L 4 9.0039062 z M 1 13 L 1 15 L 15 15 L 15 13 L 1 13 z"/>
</svg>

<svg xmlns="http://www.w3.org/2000/svg" width="16" height="16"><defs><style id="current-color-scheme" type="text/css"></style></defs><path d="M1 1v2h14V1H1zm3 4.004v2h8v-2H4zm0 4v2h8v-2H4zM1 13v2h14v-2H1z" fill="currentColor" color="#565656"/></svg>
